!!!!SEGMENT: pl-kk--kk-i-2--030_anonim--suscepimus-deus.krn
!!!cenid: 16xx:1650
!!!COM: Anonim
!!!COM-rismid: pe30004985
!!!CDT:
!!!CNT:
!!!OTL: Suscepimus Deus
!!!PDT:
!!!AGN: Sacred
!!!SMS-siglum: PL-Kk
!!!SMS-shelfmark: Kk.I.2
!!!SMS-shelfwork: 030 W
!!!NIFC-rismid: 300258048
!!!URL-scan: http://repozytorium.nifc.pl/skany/pl-kk-nut--i-2
!!!ONB-nifc: skany: C: 0055-0056; A: 0158; T: 0260; B: 0358;
!!!AIN: 1 alto 1 bass 1 soprn 1 tenor
!!!key: d:dor
**kern	**text	**kern	**text	**kern	**text	**kern
*part4	*part4	*part3	*part3	*part2	*part2	*part1
*staff4	*staff4	*staff3	*staff3	*staff2	*staff2	*staff1
*I"BASVS	*	*I"TENOR	*	*I"ALTVS	*	*I"DISCANTVS
*I'B	*	*I'T	*	*I'A	*	*I'S
*Ibass	*	*Itenor	*	*Ialto	*	*Isoprn
*ICvox	*	*ICvox	*	*ICvox	*	*ICvox
*clefF4	*	*clefC4	*	*clefC3	*	*clefC1
*k[]	*	*k[]	*	*k[]	*	*k[]
*d:dor	*	*d:dor	*	*d:dor	*	*d:dor
*M2/1	*	*M2/1	*	*M2/1	*	*M2/1
*met(C|)	*	*met(C|)	*	*met(C|)	*	*met(C|)
=1-	=1-	=1-	=1-	=1-	=1-	=1-
*	*	*	*	*	*	*lig
!	!	!	!	!	!	!LO:TX:b:t=Suſcepimus
0r	.	1C	Suſ-	2.G/	Suſ-	1c
.	.	.	.	4A/	-ce-	.
.	.	2G/	-ce-	2B/	.	1d
!	!	!LO:TX:t=P:problem=kreska pseudotaktowa	!	!LO:TX:t=P:problem=kreska pseudotaktowa	!	!
.	.	2F/	-pi-	2A/	.	.
*	*	*	*	*	*	*Xlig
=2-	=2-	=2-	=2-	=2-	=2-	=2-
*lig	*	*	*	*	*	*lig
1GG	Suſ-	2.G/	-mus	1B	.	1d
.	.	4F/	.	.	.	.
*	*	*	*	*	*	*col
1AA	.	2.E/	.	2.c/	.	2.a\
*	*	*	*	*	*	*Xlig
!	!	!LO:TX:t=P:problem=kreska pseudotaktowa	!	!LO:TX:t=P:problem=kreska pseudotaktowa	!	!
.	.	4D/	.	4d/	.	4b/
*Xlig	*	*	*	*	*	*Xcol
=3-	=3-	=3-	=3-	=3-	=3-	=3-
*lig	*	*	*	*	*	*2\right
1AA	-ce-	2C/	.	0e	.	2cc\
.	.	2c/	.	.	.	1a
!	!	!LO:TX:t=P:problem=kreska pseudotaktowa	!	!	!	!
1E	.	1B	.	.	.	.
.	.	.	.	.	.	2g/
*Xlig	*	*	*	*	*	*
=4-	=4-	=4-	=4-	=4-	=4-	=4-
1.F	-pi-	2.A/	.	2.c/	.	1a
.	.	4B/	.	4B/	.	.
.	.	2c/	.	1A	-pi-	0r
4E/	.	1d\	.	.	.	.
4D/	.	.	.	.	.	.
=5-	=5-	=5-	=5-	=5-	=5-	=5-
!	!	!	!	!LO:TX:t=P:problem=kreska pseudotaktowa	!	!
2E/	.	.	.	1G	-mus	.
!	!	!LO:TX:t=P:problem=kreska pseudotaktowa	!	!	!	!
2E/	-mus	2c/	.	.	.	.
*	*	*	*	*	*	*lig
1D	.	4d/	.	1r	.	1a
.	.	4c/	.	.	.	.
.	.	4B/	.	.	.	.
.	.	4A/	.	.	.	.
=6-	=6-	=6-	=6-	=6-	=6-	=6-
!	!	!LO:TX:t=P:problem=kreska pseudotaktowa	!	!	!	!
*	*	*	*	*lig	*	*
0r	.	1G	.	1d	de	1b
*	*	*	*	*	*	*Xlig
.	.	2r	.	1e	.	2.cc\
.	.	2A/	de-	.	.	.
.	.	.	.	.	.	4b\
*	*	*	*	*Xlig	*	*
=7-	=7-	=7-	=7-	=7-	=7-	=7-
*	*	*	*	*2\right	*	*
1r	.	2F/	.	2f\	.	2a/
!	!	!	!	!LO:TX:t=P:problem=kreska pseudotaktowa	!	!
.	.	2G/	.	2e\	.	1g
*lig	*	*	*	*	*	*
*	*	*custos:G	*	*	*	*
!	!	!LO:TX:t=P:problem=kreska pseudotaktowa	!	!	!	!
1D	.	1A	.	1d	.	.
.	.	.	.	.	.	2f/
!	!	!LO:LB:g=original	!	!	!	!
=8-	=8-	=8-	=8-	=8-	=8-	=8-
1E	.	1G	-us	1c	.	1g
*Xlig	*	*	*	*	*	*
!	!	!LO:TX:t=P:problem=kreska pseudotaktowa	!	!	!	!
2.F/	.	1r	.	2d/	.	1r
.	.	.	.	2.A/	.	.
4E/	.	.	.	.	.	.
=9-	=9-	=9-	=9-	=9-	=9-	=9-
*	*	*lig	*	*	*	*
2D/	.	1A	mi-	.	.	2r
.	.	.	.	4B/	.	.
2C/	.	.	.	1c	.	1a
1D	.	1F	.	.	.	.
.	.	.	.	2B/	.	4g/
.	.	.	.	.	.	4f/
*	*	*Xlig	*	*	*	*
=10-	=10-	=10-	=10-	=10-	=10-	=10-
!	!	!	!	!LO:TX:t=P:problem=kreska pseudotaktowa	!	!
1C	.	1G	-ſe-	0c	.	2e/
.	.	.	.	.	.	2g/
!	!	!LO:TX:t=P:problem=kreska pseudotaktowa	!	!	!	!
2r	.	1A	-ri-	.	.	2f/
2AA/	.	.	.	.	.	1e/
=11-	=11-	=11-	=11-	=11-	=11-	=11-
*	*	*lig	*	*	*	*
*	*	*	*	*custos:d	*	*
2C/	.	1A	-cor	2r	.	.
*	*	*	*	*	*	*custos:g
!	!	!	!	!LO:LB:g=original	!	!
2D/	.	.	.	2d/	.	1a
*lig	*	*	*	*	*	*
1AA	.	1c	.	0e	.	.
!	!	!	!	!	!	!LO:LB:g=original
.	.	.	.	.	.	4g/
.	.	.	.	.	.	4f/
*	*	*Xlig	*	*	*	*
=12-	=12-	=12-	=12-	=12-	=12-	=12-
*	*	*lig	*	*	*	*
1E	.	1B	.	.	.	1g
*Xlig	*	*	*	*	*	*
!	!	!	!	!LO:TX:t=P:problem=kreska pseudotaktowa	!	!
0AA	.	1c	.	1e	.	2.a/
.	.	.	.	.	.	4b/
*	*	*Xlig	*	*	*	*
=13-	=13-	=13-	=13-	=13-	=13-	=13-
*	*	*lig	*	*lig	*	*
.	.	1A	.	1e	.	1cc
*	*	*col	*	*	*	*
*custos:AA	*	*	*	*	*	*
!LO:TX:t=P:problem=kreska pseudotaktowa	!	!	!	!	!	!
0D	.	2.F/	.	1f	.	1a
*	*	*Xlig	*	*Xlig	*	*
!	!	!LO:TX:t=P:problem=kreska pseudotaktowa	!	!	!	!
.	.	4G/	.	.	.	.
*	*	*Xcol	*	*	*	*
=14-	=14-	=14-	=14-	=14-	=14-	=14-
.	.	1A	.	1d	.	2.f/
.	.	.	.	.	.	4g/
!LO:LB:g=original	!	!	!	!	!	!
1AA	.	2.A/	.	2c/	.	1a
.	.	.	.	2.d/	.	.
.	.	4B/	.	.	.	.
=15-	=15-	=15-	=15-	=15-	=15-	=15-
2r	.	2.c/	.	.	.	1a
.	.	.	.	4e\	.	.
!	!	!	!	!LO:TX:t=P:problem=kreska pseudotaktowa	!	!
2AA/	.	.	.	2f\	.	.
!	!	!LO:TX:t=P:problem=kreska pseudotaktowa	!	!	!	!
.	.	4B/	.	.	.	.
2E/	.	2G/	.	1e	.	2b\
2AA/	.	2A/	.	.	.	2.cc\
=16-	=16-	=16-	=16-	=16-	=16-	=16-
*2\right	*	*	*	*	*	*
!	!	!	!	!LO:TX:t=P:problem=kreska pseudotaktowa	!	!
2A\	.	2c/	.	1r	.	.
.	.	.	.	.	.	4b\
2D/	.	2d/	.	.	.	1a
1E	.	1B	.	1e	.	.
.	.	.	.	.	.	2g/
=17-	=17-	=17-	=17-	=17-	=17-	=17-
!	!	!LO:TX:t=P:problem=kreska pseudotaktowa	!	!	!	!
2r	.	1A	.	1c	.	1a
2A\	.	.	.	.	.	.
2.G\	.	00r	.	2d/	.	0r
.	.	.	.	2.e\	.	.
4F\	.	.	.	.	.	.
=18-	=18-	=18-	=18-	=18-	=18-	=18-
2E/	.	.	.	.	.	.
.	.	.	.	4d/	.	.
2F\	.	.	.	1d	.	.
1E	.	.	.	.	.	1r
!	!	!	!	!LO:TX:t=P:problem=kreska pseudotaktowa	!	!
.	.	.	.	2c/	.	.
=19-	=19-	=19-	=19-	=19-	=19-	=19-
0D	.	.	.	2.d/	.	1a
.	.	.	.	4c/	.	.
.	.	2r	.	1A	.	1f
!	!	!LO:TX:t=P:problem=kreska pseudotaktowa	!	!	!	!
.	.	2d\	.	.	.	.
=20-	=20-	=20-	=20-	=20-	=20-	=20-
2E\	.	2.c\	.	2r	.	2g/
!	!	!	!	!LO:TX:t=P:problem=kreska pseudotaktowa	!	!
1F	.	.	.	2A/	.	2.a/
!	!	!LO:TX:t=P:problem=kreska pseudotaktowa	!	!	!	!
.	.	4B/	.	.	.	.
.	.	2A/	.	1d	.	.
.	.	.	.	.	.	4g/
2G\	.	2B/	.	.	.	1g\
=21-	=21-	=21-	=21-	=21-	=21-	=21-
1D	.	1A	.	1d	.	.
.	.	.	.	.	.	2f/
!	!	!LO:TX:t=P:problem=kreska pseudotaktowa	!	!	!	!
1r	.	1G	.	2B/	.	1g
!	!	!	!	!LO:TX:t=P:problem=kreska pseudotaktowa	!	!
.	.	.	.	2e\	.	.
=22-	=22-	=22-	=22-	=22-	=22-	=22-
1E	.	00r	.	2.g\	.	0r
.	.	.	.	4f\	.	.
2.G\	.	.	.	2e\	.	.
!	!	!	!	!LO:TX:t=P:problem=kreska pseudotaktowa	!	!
.	.	.	.	2d\	.	.
4F\	.	.	.	.	.	.
=23-	=23-	=23-	=23-	=23-	=23-	=23-
2E\	.	.	.	2c/	.	1r
*	*	*	*	*custos:A	*	*
!	!	!	!	!LO:TX:t=P:problem=kreska pseudotaktowa	!	!
1D	.	.	.	2d/	.	.
!	!	!	!	!LO:LB:g=original	!	!
.	.	.	.	1A	.	2r
!	!	!	!	!	!	!LO:TX:t=P:problem=kreska pseudotaktowa
4C/	.	.	.	.	.	2a/
4BB/	.	.	.	.	.	.
=24-	=24-	=24-	=24-	=24-	=24-	=24-
*	*	*lig	*	*	*	*
!	!	!	!	!LO:TX:t=P:problem=kreska pseudotaktowa	!	!
1AA	.	1A	.	0e	.	2.cc\
!	!	!	!	!	!	!LO:TX:t=P:problem=kreska pseudotaktowa
.	.	.	.	.	.	4b\
*	*	*	*	*	*	*custos:g
2r	.	1c	.	.	.	2a/
!	!	!	!	!	!	!LO:LB:g=original
2E\	.	.	.	.	.	1g\
*	*	*Xlig	*	*	*	*
=25-	=25-	=25-	=25-	=25-	=25-	=25-
2.F\	.	2.A/	.	2.c/	.	.
!	!	!	!	!	!	!LO:TX:t=P:problem=kreska pseudotaktowa
.	.	.	.	.	.	2f/
*custos:C	*	*custos:c	*	*	*	*
!	!	!LO:TX:t=P:problem=kreska pseudotaktowa	!	!	!	!
4E\	.	4B/	.	4d/	.	.
!LO:LB:g=original	!	!LO:LB:g=original	!	!	!	!
2C/	.	2c/	.	2e/	.	2e/
2D/	.	2A/	.	1d\	.	1f/
=26-	=26-	=26-	=26-	=26-	=26-	=26-
2BB-X/	.	1G	.	.	.	.
!	!	!	!	!	!	!LO:TX:t=P:problem=kreska pseudotaktowa
2C/	.	.	.	4c/	.	2e/
.	.	.	.	4B/	.	.
!	!	!	!	!LO:TX:t=P:problem=kreska pseudotaktowa	!	!
2.D/	.	0F	.	1A	.	1f
4C/	.	.	.	.	.	.
=27-	=27-	=27-	=27-	=27-	=27-	=27-
*	*	*	*	*	*	*lig
2.BB-/	.	.	.	1r	.	1f
4AA/	.	.	.	.	.	.
*	*	*	*	*lig	*	*
!	!	!LO:TX:t=P:problem=kreska pseudotaktowa	!	!	!	!
2FF/	.	0r	.	1c	.	1a
2F\	.	.	.	.	.	.
*	*	*	*	*	*	*Xlig
=28-	=28-	=28-	=28-	=28-	=28-	=28-
!	!	!	!	!	!	!LO:TX:t=P:problem=kreska pseudotaktowa
2E/	.	.	.	1e	.	1g
2C/	.	.	.	.	.	.
*	*	*lig	*	*Xlig	*	*
!	!	!	!	!LO:TX:t=P:problem=kreska pseudotaktowa	!	!
2.D/	.	1F	.	1d	.	2f/
.	.	.	.	.	.	2.a/
4E\	.	.	.	.	.	.
=29-	=29-	=29-	=29-	=29-	=29-	=29-
2.F\	.	1A	.	1.c	.	.
.	.	.	.	.	.	4g/
.	.	.	.	.	.	1f
4E\	.	.	.	.	.	.
*	*	*Xlig	*	*	*	*
!	!	!LO:TX:t=P:problem=kreska pseudotaktowa	!	!	!	!
1C	.	1G	.	.	.	.
.	.	.	.	4B/	.	2e/
!	!	!	!	!LO:TX:t=P:problem=kreska pseudotaktowa	!	!
.	.	.	.	4c/	.	.
=30-	=30-	=30-	=30-	=30-	=30-	=30-
*lig	*	*	*	*	*	*
!	!	!	!	!	!	!LO:TX:t=P:problem=kreska pseudotaktowa
1FF	.	2F/	.	2d/	.	1f
.	.	2.A/	.	1c	.	.
1AA	.	.	.	.	.	0r
.	.	4G/	.	.	.	.
.	.	1F/	.	4B/	.	.
!	!	!	!	!LO:TX:t=P:problem=kreska pseudotaktowa	!	!
.	.	.	.	4A/	.	.
*Xlig	*	*	*	*	*	*
=31-	=31-	=31-	=31-	=31-	=31-	=31-
1GG	.	.	.	1B	.	.
.	.	2E/	.	.	.	.
!	!	!LO:TX:t=P:problem=kreska pseudotaktowa	!	!	!	!
0FF	.	1F	.	1A	.	2r
!	!	!	!	!	!	!LO:TX:t=P:problem=kreska pseudotaktowa
.	.	.	.	.	.	2f/
=32-	=32-	=32-	=32-	=32-	=32-	=32-
.	.	2r	.	2F/	.	2.a/
.	.	2F/	.	2.A/	.	.
!	!	!	!	!	!	!LO:TX:t=P:problem=kreska pseudotaktowa
.	.	.	.	.	.	4b/
2r	.	2.A/	.	.	.	2.cc\
.	.	.	.	4B/	.	.
!	!	!	!	!LO:TX:t=P::problem=kreska pseudotaktowa&colon;między nutą a kropką	!	!
2FF/	ſe-	.	.	2.c/	.	.
!	!	!LO:TX:t=P:problem=kreska pseudotaktowa	!	!	!	!LO:TX:t=P:problem=kreska pseudotaktowa
.	.	4B/	.	.	.	4b/
=33-	=33-	=33-	=33-	=33-	=33-	=33-
1AA	-cun-	2c/	.	.	.	2a/
.	.	.	.	4d/	.	.
.	.	4B/	.	2e\	.	4g/
!	!	!LO:TX:t=P:problem=kreska pseudotaktowa	!	!	!	!LO:TX:t=P:problem=kreska pseudotaktowa
.	.	4A/	.	.	.	4f/
!	!	!	!	!LO:TX:t=P:problem=kreska pseudotaktowa	!	!
1C	.	2G/	.	0c	.	1e
.	.	2A/	.	.	.	.
=34-	=34-	=34-	=34-	=34-	=34-	=34-
2.C/	-dum	2G/	.	.	.	0e
.	.	1A	.	.	.	.
4D/	.	.	.	.	.	.
*	*	*	*	*lig	*	*
1E	.	.	.	1c	.	.
!	!	!LO:TX:t=P:problem=kreska pseudotaktowa	!	!	!	!
.	.	2G/	.	.	.	.
=35-	=35-	=35-	=35-	=35-	=35-	=35-
1D	.	2A/	.	1d	.	1f
.	.	2B/	.	.	.	.
*	*	*	*	*Xlig	*	*
!	!	!	!	!LO:TX:t=P:problem=kreska pseudotaktowa	!	!LO:TX:t=P:problem=kreska pseudotaktowa
1C	no-	2.c/	.	1G	.	1e
!	!	!LO:TX:t=P:problem=kreska pseudotaktowa	!	!	!	!
.	.	4B/	.	.	.	.
=36-	=36-	=36-	=36-	=36-	=36-	=36-
*custos:C	*	*	*	*custos:c	*	*
!	!	!	!	!LO:TX:t=P:problem=kreska pseudotaktowa	!	!
1C	-men	1G	.	0c	.	2r
.	.	.	.	.	.	2.g/
!LO:LB:g=original	!	!	!	!	!	!
1C	tu-	2E/	.	.	.	.
.	.	.	.	.	.	4f/
*	*	*	*	*	*	*custos:e
.	.	2F/	.	.	.	1f/
!	!	!	!	!LO:PB:g=original	!	!
=37-	=37-	=37-	=37-	=37-	=37-	=37-
*lig	*	*	*	*	*	*
1C	.	1G	.	1c	.	.
!	!	!	!	!	!	!LO:PB:g=original
!	!	!	!	!	!	!LO:TX:t=P:problem=kreska pseudotaktowa
.	.	.	.	.	.	2e/
!	!	!LO:TX:t=P:problem=kreska pseudotaktowa	!	!	!	!
*	*	*	*	*	*	*lig
1D	.	1F	.	4A/	.	1f
.	.	.	.	4B/	.	.
.	.	.	.	4c/	.	.
!	!	!	!	!LO:TX:t=P:problem=kreska pseudotaktowa	!	!
.	.	.	.	4d/	.	.
*Xlig	*	*	*	*	*	*
=38-	=38-	=38-	=38-	=38-	=38-	=38-
*lig	*	*	*	*	*	*
1C	.	2r	.	1e	.	1g
.	.	2E/	.	.	.	.
*	*	*	*	*	*	*Xlig
*	*	*custos:A	*	*	*	*
!	!	!LO:TX:t=P:problem=kreska pseudotaktowa	!	!	!	!
!	!	!	!	!LO:N:vis=1	!	!LO:TX:t=P:problem=kreska pseudotaktowa
1AA	.	2F/	.	1.c	.	1a
.	.	2E/	.	.	.	.
*Xlig	*	*	*	*	*	*
!	!	!LO:LB:g=original	!	!	!	!
=39-	=39-	=39-	=39-	=39-	=39-	=39-
0AA	-vm	2A/	.	.	.	2r
.	.	2G/	.	2B/	.	2cc\
!	!	!LO:TX:t=P:problem=kreska pseudotaktowa	!	!	!	!LO:TX:t=P:problem=kreska pseudotaktowa
.	.	1F	.	1A	.	1cc
=40-	=40-	=40-	=40-	=40-	=40-	=40-
!	!	!	!	!LO:TX:t=P:problem=kreska pseudotaktowa	!	!
2r	.	2D/	.	2B-X/	.	2.dd\
2D/	.	2.F/	.	2.A/	.	.
.	.	.	.	.	.	4cc\
!	!	!	!	!	!	!LO:TX:t=P:problem=kreska pseudotaktowa
2.F\	.	.	.	.	.	1a
.	.	4G/	.	4F/	.	.
.	.	4A/	.	2f\	.	.
!	!	!LO:TX:t=P:problem=kreska pseudotaktowa	!	!	!	!
4G\	.	4B/	.	.	.	.
=41-	=41-	=41-	=41-	=41-	=41-	=41-
!	!	!	!	!LO:TX:t=P:problem=kreska pseudotaktowa	!	!
2A\	.	2c/	.	2e\	.	1.a
2D/	.	2d/	.	2f\	.	.
1E	.	1B	.	2.e\	.	.
.	.	.	.	.	.	2g/
.	.	.	.	4d\	.	.
=42-	=42-	=42-	=42-	=42-	=42-	=42-
!	!	!	!	!	!	!LO:TX:t=P:problem=kreska pseudotaktowa
0AA	.	2.A/	.	2.c/	.	1a
!	!	!LO:TX:t=P:problem=kreska pseudotaktowa	!	!	!	!
.	.	4G/	.	4Bny/	.	.
!	!	!	!	!LO:TX:t=P:problem=kreska pseudotaktowa	!	!
*	*	*	*	*	*	*lig
.	.	2F/	.	2A/	.	1cc
.	.	2E/	.	1c\	.	.
=43-	=43-	=43-	=43-	=43-	=43-	=43-
1r	.	2F/	.	.	.	1a
.	.	4E/	.	1d	.	.
!	!	!LO:TX:t=P:problem=kreska pseudotaktowa	!	!	!	!
.	.	4D/	.	.	.	.
*	*	*	*	*	*	*Xlig
0r	.	2G/	.	.	.	2b/
!	!	!	!	!	!	!LO:TX:t=P:problem=kreska pseudotaktowa
.	.	2A/	.	2c/	.	2cc/
=44-	=44-	=44-	=44-	=44-	=44-	=44-
!	!	!	!	!LO:TX:t=P:problem=kreska pseudotaktowa	!	!
.	.	1G	.	2d/	.	1b
.	.	.	.	2e/	.	.
!	!	!LO:TX:t=P:problem=kreska pseudotaktowa	!	!	!	!
1D	.	1F	.	2.A/	.	1a
.	.	.	.	4B/	.	.
=45-	=45-	=45-	=45-	=45-	=45-	=45-
!	!	!	!	!LO:TX:t=P:problem=kreska pseudotaktowa	!	!LO:TX:t=P:problem=kreska pseudotaktowa
2C/	.	2E/	.	2c/	.	0r
2D/	.	2F/	.	1A	.	.
1BBny	.	1D	.	.	.	.
.	.	.	.	2G/	.	.
=46-	=46-	=46-	=46-	=46-	=46-	=46-
*lig	*	*	*	*	*	*
1AA	.	1E	.	0A	.	1cc
!	!	!LO:TX:t=P:problem=kreska pseudotaktowa	!	!	!	!
1D	.	1r	.	.	.	1f
*Xlig	*	*	*	*	*	*
=47-	=47-	=47-	=47-	=47-	=47-	=47-
*	*	*	*	*custos:d	*	*
*	*	*	*	*	*	*lig
2C/	.	1c	in	1r	.	1g
2E\	.	.	.	.	.	.
!	!	!	!	!LO:LB:g=original	!	!
1D	.	1F	fi-	1d	.	1a
*	*	*	*	*	*	*Xlig
=48-	=48-	=48-	=48-	=48-	=48-	=48-
*	*	*lig	*	*	*	*
!	!	!	!	!	!	!LO:TX:t=P:problem=kreska pseudotaktowa
1C	.	1G	.	1e	.	1cc
!	!	!LO:TX:t=P:problem=kreska pseudotaktowa	!	!LO:TX:t=P:problem=kreska pseudotaktowa	!	!
2.FF/	.	1A	.	1f	.	2a/
.	.	.	.	.	.	2.cc/
4GG/	.	.	.	.	.	.
*	*	*Xlig	*	*	*	*
=49-	=49-	=49-	=49-	=49-	=49-	=49-
*	*	*lig	*	*	*	*
2AA/	.	1c	.	2e\	.	.
.	.	.	.	.	.	4b/
2FF/	.	.	.	2f\	.	4a/
!	!	!	!	!	!	!LO:TX:t=P:problem=kreska pseudotaktowa
.	.	.	.	.	.	4g/
2.F\	.	1A	.	2.c/	.	2f/
.	.	.	.	.	.	2.a/
!	!	!	!	!LO:TX:t=P:problem=kreska pseudotaktowa	!	!
4E\	.	.	.	4d\	.	.
*	*	*Xlig	*	*	*	*
=50-	=50-	=50-	=50-	=50-	=50-	=50-
2.C/	.	1.c	-nes	1.e	.	.
.	.	.	.	.	.	4g/
.	.	.	.	.	.	2.g/
*custos:E	*	*	*	*	*	*
4D/	.	.	.	.	.	.
!LO:LB:g=original	!	!	!	!	!	!
2E\	.	.	.	.	.	.
*	*	*	*	*	*	*custos:f
.	.	.	.	.	.	4f/
!	!	!	!	!	!	!LO:LB:g=original
!	!	!	!	!	!	!LO:TX:t=P:problem=kreska pseudotaktowa
2F\	.	4B/	.	2c/	.	1f/
!	!	!LO:TX:t=P:problem=kreska pseudotaktowa	!	!	!	!
.	.	4A/	.	.	.	.
=51-	=51-	=51-	=51-	=51-	=51-	=51-
!	!	!	!	!LO:TX:t=P:problem=kreska pseudotaktowa	!	!
1C	.	1G	ter-	1c	.	.
.	.	.	.	.	.	2e/
1D	.	1F	-rae	2r	.	2f/
!	!	!	!	!	!	!LO:TX:t=P:problem=kreska pseudotaktowa
.	.	.	.	2A/	.	2a/
=52-	=52-	=52-	=52-	=52-	=52-	=52-
*	*	*	*	*lig	*	*
1r	.	00r	.	1c	.	1g
1D	.	.	.	1d	.	1f
*	*	*	*	*Xlig	*	*
=53-	=53-	=53-	=53-	=53-	=53-	=53-
*lig	*	*	*	*	*	*
!	!	!	!	!	!	!LO:TX:t=P:problem=kreska pseudotaktowa
1F	.	.	.	2.c/	.	1r
!	!	!	!	!LO:TX:t=P:problem=kreska pseudotaktowa	!	!
.	.	.	.	4A/	.	.
1G	.	.	.	1B	.	1d
*Xlig	*	*	*	*	*	*
=54-	=54-	=54-	=54-	=54-	=54-	=54-
*	*	*custos:D	*	*	*	*
!	!	!LO:TX:t=P:problem=kreska pseudotaktowa	!	!	!	!
2.F\	.	0r	.	1A	.	1.f
4E\	.	.	.	.	.	.
*	*	*	*	*lig	*	*
1D	.	.	.	1A	.	.
.	.	.	.	.	.	4e/
!	!	!	!	!	!	!LO:TX:t=P:problem=kreska pseudotaktowa
.	.	.	.	.	.	4f/
!	!	!LO:LB:g=original	!	!	!	!
=55-	=55-	=55-	=55-	=55-	=55-	=55-
!	!	!	!	!LO:TX:t=P:problem=kreska pseudotaktowa	!	!
1GG	.	1D	Iu-	1B	.	1g
*	*	*	*	*Xlig	*	*
0D	.	1.F	-ſti-	2A/	.	1f
.	.	.	.	2.d/	.	.
=56-	=56-	=56-	=56-	=56-	=56-	=56-
.	.	.	.	.	.	1f
.	.	.	.	4e\	.	.
.	.	4E/	.	1f	.	.
!	!	!LO:TX:t=P:problem=kreska pseudotaktowa	!	!	!	!
.	.	4D/	.	.	.	.
1C	.	1G	.	.	.	0r
!	!	!	!	!LO:TX:t=P:problem=kreska pseudotaktowa	!	!
.	.	.	.	2e\	.	.
=57-	=57-	=57-	=57-	=57-	=57-	=57-
2.D/	.	1F	-ci-	2.f\	.	.
4C/	.	.	.	4e\	.	.
*	*	*	*	*	*	*lig
2AA/	.	1F	-a	2c/	.	1f
2BB/	.	.	.	1d\	.	.
=58-	=58-	=58-	=58-	=58-	=58-	=58-
!	!	!LO:TX:t=P:problem=kreska pseudotaktowa	!	!	!	!
1GG	.	1r	.	.	.	1g
.	.	.	.	4c/	.	.
!	!	!	!	!LO:TX:t=P:problem=kreska pseudotaktowa	!	!
.	.	.	.	4B/	.	.
*	*	*lig	*	*	*	*Xlig
*	*	*	*	*custos:d	*	*
*	*	*	*	*	*	*lig
1D	.	1F	ple-	1A	.	1a
!	!	!	!	!LO:LB:g=original	!	!
=59-	=59-	=59-	=59-	=59-	=59-	=59-
1GG	.	1G	.	2.d\	.	1b
.	.	.	.	4e\	.	.
*lig	*	*Xlig	*	*	*	*Xlig
*	*	*lig	*	*	*	*
1D	.	1A	.	2.f\	.	1a
!	!	!	!	!LO:TX:t=P:problem=kreska pseudotaktowa	!	!
.	.	.	.	4e\	.	.
=60-	=60-	=60-	=60-	=60-	=60-	=60-
1BB	.	1B	.	1d	.	2g/
.	.	.	.	.	.	1f
*Xlig	*	*Xlig	*	*	*	*
*	*	*lig	*	*	*	*
!	!	!	!	!LO:TX:t=P:problem=kreska pseudotaktowa	!	!
1C	.	1G	-na	1c	.	.
.	.	.	.	.	.	2e/
=61-	=61-	=61-	=61-	=61-	=61-	=61-
0FF	.	1F	.	2r	.	1f
.	.	.	.	2c/	.	.
*	*	*Xlig	*	*	*	*
!	!	!LO:TX:t=P:problem=kreska pseudotaktowa	!	!	!	!
.	.	1F	eſt	1c	.	1r
=62-	=62-	=62-	=62-	=62-	=62-	=62-
!	!	!	!	!LO:TX:t=P:problem=kreska pseudotaktowa	!	!
0r	.	00r	.	1d	.	1f
*	*	*	*	*	*	*lig
.	.	.	.	1d	.	1f
=63-	=63-	=63-	=63-	=63-	=63-	=63-
1r	.	.	.	1B	.	1g
*	*	*	*	*	*	*Xlig
*	*	*	*	*	*	*lig
1C	Dex-	.	.	0c	.	1g
=64-	=64-	=64-	=64-	=64-	=64-	=64-
*lig	*	*	*	*	*	*
1C	-te-	1r	.	.	.	1e
*	*	*	*	*	*	*Xlig
*	*	*	*	*	*	*lig
1D	.	1F	dex-	0A	.	1f
*Xlig	*	*	*	*	*	*
=65-	=65-	=65-	=65-	=65-	=65-	=65-
*lig	*	*lig	*	*	*	*
1D	-ra	1F	-te-	.	.	1d
*	*	*	*	*	*	*Xlig
!	!	!LO:TX:t=P:problem=kreska pseudotaktowa	!	!LO:TX:t=P:problem=kreska pseudotaktowa	!	!
*	*	*	*	*	*	*lig
1BB	.	1G	.	1B	.	1d
*Xlig	*	*Xlig	*	*	*	*
=66-	=66-	=66-	=66-	=66-	=66-	=66-
*	*	*lig	*	*	*	*
1.C	.	1G	-ra	2r	.	1e
.	.	.	.	1G	.	.
*	*	*	*	*	*	*Xlig
.	.	1E	.	.	.	2c/
*custos:AA	*	*	*	*	*	*
!	!	!	!	!LO:TX:t=P::problem=kreska pseudotaktowa&colon;między nutą a kropką	!	!
2AA/	.	.	.	2.A/	.	2.cc\
*	*	*Xlig	*	*	*	*
!LO:PB:g=original	!	!	!	!	!	!
=67-	=67-	=67-	=67-	=67-	=67-	=67-
*	*	*lig	*	*	*	*
1AA	.	1F	.	.	.	.
*	*	*	*	*	*	*custos:a
.	.	.	.	4B/	.	4b/
!	!	!	!	!	!	!LO:LB:g=original
.	.	.	.	2c/	.	2.a/
2r	.	1D	.	2d/	.	.
.	.	.	.	.	.	4g/
2.D/	.	.	.	2.A/	.	2.f/
*	*	*Xlig	*	*	*	*
=68-	=68-	=68-	=68-	=68-	=68-	=68-
*	*	*lig	*	*	*	*
.	.	1D	tu-	.	.	.
4C/	.	.	.	4F/	.	4e/
!	!	!	!	!LO:TX:t=P:problem=kreska pseudotaktowa	!	!
2BB/	.	.	.	2G/	.	1d
!	!	!LO:TX:t=P:problem=kreska pseudotaktowa	!	!	!	!
1AA	.	1E	.	1A	.	.
.	.	.	.	.	.	2c/
*	*	*Xlig	*	*	*	*
=69-	=69-	=69-	=69-	=69-	=69-	=69-
*	*	*lig	*	*	*	*
2r	.	1F	-a.	2.D/	.	2d/
1D	.	.	.	.	.	1f
.	.	.	.	4E/	.	.
.	.	1D	.	2F/	.	.
4C/	.	.	.	2G/	.	4e/
4BB/	.	.	.	.	.	4d/
*	*	*Xlig	*	*	*	*
=70-	=70-	=70-	=70-	=70-	=70-	=70-
0AA	.	2E/	.	[0A;<l	.	2c/
.	.	2F/	.	.	.	1d
.	.	1E	.	.	.	.
.	.	.	.	.	.	2c/
=71-	=71-	=71-	=71-	=71-	=71-	=71-
*	*	*custos:F	*	*custos:d	*	*
0D;<l	.	0D;l	.	0A]	.	0d;
!	!	!LO:PB:g=original	!	!LO:LB:g=original	!	!
=72||-	=72||-	=72||-	=72||-	=72||-	=72||-	=72||-
!LO:TX:b:t=Magnus dominus	!	!	!	!LO:TX:b:t=Magnus dominus	!	!LO:TX:b:t=MAgnus d(ominu)s
1D	.	00r	.	1d	.	1f
*	*	*	*	*	*	*lig
1E	.	.	.	2B/	.	1g
!	!	!	!	!LO:TX:t=P:problem=kreska pseudotaktowa	!	!
.	.	.	.	2c/	.	.
=73-	=73-	=73-	=73-	=73-	=73-	=73-
2.F/	.	.	.	2A/	.	1a
.	.	.	.	1d	.	.
4E/	.	.	.	.	.	.
*	*	*	*	*	*	*Xlig
2D/	.	.	.	.	.	2a/
!	!	!	!	!LO:TX:t=P:problem=kreska pseudotaktowa	!	!
2C/	.	.	.	2e\	.	2a/
=74-	=74-	=74-	=74-	=74-	=74-	=74-
1D	.	1F	Mag-	1f	.	1a
*	*	*lig	*	*	*	*
2BB/	.	1G	-nus	2d/	.	1r
2C/	.	.	.	1e\	.	.
=75-	=75-	=75-	=75-	=75-	=75-	=75-
!	!	!LO:TX:t=P:problem=kreska pseudotaktowa	!	!	!	!
1.AA	.	1A	.	.	.	1.cc
!	!	!	!	!LO:TX:t=P:problem=kreska pseudotaktowa	!	!
.	.	.	.	2f\	.	.
*	*	*Xlig	*	*	*	*
.	.	2A/	do-	1e	.	.
2AA/	.	2A/	-mi-	.	.	2cc\
=76-	=76-	=76-	=76-	=76-	=76-	=76-
!	!	!LO:TX:t=P:problem=kreska pseudotaktowa	!	!	!	!
1.AA	.	1A	-nus	2e\	.	0cc
!	!	!	!	!LO:TX:t=P:problem=kreska pseudotaktowa	!	!
.	.	.	.	2e\	.	.
*	*	*	*	*lig	*	*
.	.	2A/	et	1e	.	.
2AA/	.	2A/	lau-	.	.	.
=77-	=77-	=77-	=77-	=77-	=77-	=77-
*	*	*lig	*	*	*	*
2.D/	.	1A	-da-	1f	.	1dd
4C/	.	.	.	.	.	.
*	*	*	*	*Xlig	*	*
*custos:D	*	*	*	*	*	*
!	!	!LO:TX:t=P:problem=kreska pseudotaktowa	!	!	!	!
0AA	.	1c	.	1e	.	1.cc
*	*	*Xlig	*	*	*	*
=78-	=78-	=78-	=78-	=78-	=78-	=78-
!	!	!	!	!LO:TX:t=P:problem=kreska pseudotaktowa	!	!
.	.	2A/	-bi-	1c	.	.
.	.	2A/	-lis	.	.	1a
!LO:LB:g=original	!	!	!	!	!	!
*	*	*lig	*	*	*	*
1D	.	1A	ni-	1d	.	.
.	.	.	.	.	.	4g/
*	*	*	*	*	*	*custos:e
.	.	.	.	.	.	4f/
!	!	!	!	!	!	!LO:LB:g=original
=79-	=79-	=79-	=79-	=79-	=79-	=79-
2.E\	.	1G	.	2c/	.	2.e/
.	.	.	.	2B/	.	.
4D/	.	.	.	.	.	4f/
*	*	*Xlig	*	*	*	*
2.C/	.	1G	.	2e\	.	2g/
.	.	.	.	1E/	.	4a/
4BB/	.	.	.	.	.	4b/
=80-	=80-	=80-	=80-	=80-	=80-	=80-
[0AA;l	.	0A	.	.	.	[0cc;<l
!	!	!	!	!LO:TX:t=P:problem=kreska pseudotaktowa	!	!
.	.	.	.	2F/	.	.
.	.	.	.	[1E;l	.	.
=81-	=81-	=81-	=81-	=81-	=81-	=81-
0AA]	.	0A;	-mis	0E]	.	0cc]
=82||-	=82||-	=82||-	=82||-	=82||-	=82||-	=82||-
*lig	*	*lig	*	*	*	*
!LO:TX:b:t=In civitate	!	!	!	!	!	!LO:TX:b:t=In civitate dei
1C	.	1G	In	1E	In	2.g/
.	.	.	.	.	.	4a/
1D	.	1F	.	2D/	ci-	2b/
.	.	.	.	1d\	-vi-	2a/
*Xlig	*	*Xlig	*	*	*	*
=83-	=83-	=83-	=83-	=83-	=83-	=83-
*lig	*	*lig	*	*	*	*lig
1E	.	1G	ci-	.	.	1g
*	*	*	*	*custos:d	*	*
!	!	!	!	!LO:TX:t=P:problem=kreska pseudotaktowa	!	!
.	.	.	.	2c/	-ta-	.
!	!	!	!	!LO:LB:g=original	!	!
1D	.	1A	.	0d	-te	1f
*Xlig	*	*Xlig	*	*	*	*Xlig
=84-	=84-	=84-	=84-	=84-	=84-	=84-
1D	.	1A	-vi-	.	.	1f
2F\	.	2A/	-ta-	2c/	.	2f/
!	!	!LO:TX:t=P:problem=kreska pseudotaktowa	!	!LO:TX:t=P:problem=kreska pseudotaktowa	!	!
2F\	.	2A/	-te	2c/	.	2f/
=85-	=85-	=85-	=85-	=85-	=85-	=85-
2F\	.	2A/	.	2c/	.	2f/
2F\	.	2A/	.	2c/	.	2f/
1D	.	1A	.	1d	.	1f
=86-	=86-	=86-	=86-	=86-	=86-	=86-
!	!	!LO:TX:t=P:problem=kreska pseudotaktowa	!	!LO:TX:t=P:problem=kreska pseudotaktowa	!	!
1D	.	1A	.	1d	.	1f
2r	.	1A	.	0c	.	2r
1AA/	.	.	.	.	.	2e/
=87-	=87-	=87-	=87-	=87-	=87-	=87-
.	.	1A	.	.	.	2e/
2AA/	.	.	.	.	.	1e
*lig	*	*lig	*	*	*	*
1AA	.	1A	.	1c	.	.
.	.	.	.	.	.	2f/
=88-	=88-	=88-	=88-	=88-	=88-	=88-
!	!	!	!	!LO:TX:t=P:problem=kreska pseudotaktowa	!	!
1GG	.	1B	.	1d	.	1g
*Xlig	*	*Xlig	*	*	*	*
*lig	*	*lig	*	*	*	*
1AA	.	1c	.	2r	.	2e/
.	.	.	.	2e\	.	2.a/
=89-	=89-	=89-	=89-	=89-	=89-	=89-
!	!	!LO:TX:t=P:problem=kreska pseudotaktowa	!	!	!	!
1FF	.	1A	.	2c/	.	.
.	.	.	.	.	.	4g/
!	!	!	!	!LO:TX:t=P:problem=kreska pseudotaktowa	!	!
.	.	.	.	2d/	.	1f
*Xlig	*	*Xlig	*	*	*	*
1C	.	1G	.	1c	.	.
.	.	.	.	.	.	2e/
=90-	=90-	=90-	=90-	=90-	=90-	=90-
!	!	!	!	!LO:TX:t=P:problem=kreska pseudotaktowa	!	!
2.FF/	.	1F	.	1A	.	2.f/
*	*	*	*	*	*	*custos:c
4GG/	.	.	.	.	.	4e/
*	*	*custos:E	*	*	*	*
!	!	!LO:TX:t=P:problem=kreska pseudotaktowa	!	!	!	!LO:LB:g=original
2AA/	.	1F	.	2r	.	2c/
2BB/	.	.	.	2d\	.	2d/
!	!	!LO:LB:g=original	!	!	!	!
=91-	=91-	=91-	=91-	=91-	=91-	=91-
2C/	.	2E/	.	4c/	.	2e/
.	.	.	.	4B/	.	.
2D/	.	2F/	.	4A/	.	1d
.	.	.	.	4G/	.	.
1AA	.	1E	.	[1Al	.	.
.	.	.	.	.	.	2c/
=92-	=92-	=92-	=92-	=92-	=92-	=92-
0D;<l	.	0Dl	.	0A]	.	0dl
==	==	==	==	==	==	==
*-	*-	*-	*-	*-	*-	*-
!!!system-decoration: [(s1,s2,s3,s4)]
!!!RDF**kern: < = below
!!!RDF**kern: l = terminal long
!!!ENC: Filip Voros
!!!END: 2022-01-14
!!!ENC: Marta Lawrence
!!!END: 2022-01-21
